; generated by Slic3r Prusa Edition 1.40.0-beta+linux64 on 2018-06-06 at 21:15:22

; 

; external perimeters extrusion width = 0.45mm
; perimeters extrusion width = 0.45mm
; infill extrusion width = 0.45mm
; solid infill extrusion width = 0.45mm
; top infill extrusion width = 0.40mm
; first layer extrusion width = 0.42mm

M107
M115 U3.1.1-RC5 ; tell printer latest fw version
M201 X1000 Y1000 Z200 E5000 ; sets maximum accelerations, mm/sec^2
M203 X200 Y200 Z12 E120 ; sets maximum feedrates, mm/sec
M204 S1250 T1250 ; sets acceleration (S) and retract acceleration (T)
M205 X10 Y10 Z0.4 E2.5 ; sets the jerk limits, mm/sec
M205 S0 T0 ; sets the minimum extruding and travel feed rate, mm/sec
M83  ; extruder relative mode
M104 S215 ; set extruder temp
M140 S60 ; set bed temp
M190 S60 ; wait for bed temp
M109 S215 ; wait for extruder temp
G28 W ; home all without mesh bed level
G80 ; mesh bed leveling
G1 Y-3.0 F1000.0 ; go outside print area
G92 E0.0
G1 X60.0 E9.0  F1000.0 ; intro line
G1 X100.0 E12.5  F1000.0 ; intro line
G92 E0.0
M221 S95
M900 K30; Filament gcode
G21 ; set units to millimeters
G90 ; use absolute coordinates
M83 ; use relative distances for extrusion
;BEFORE_LAYER_CHANGE
;0.2


G1 E-0.80000 F2100.00000
G1 Z0.600 F10800.000
;AFTER_LAYER_CHANGE
;0.2
G1 X109.104 Y88.003
G1 Z0.200
G1 E0.80000 F2100.00000
M204 S1000
G1 F1800
G1 X109.950 Y87.812 E0.02721
G1 X140.004 Y87.811 E0.94230
G1 X140.817 Y87.970 E0.02597
G1 X141.510 Y88.416 E0.02586
G1 X141.991 Y89.091 E0.02597
G1 X142.186 Y89.895 E0.02597
G1 X142.188 Y120.040 E0.94517
G1 X142.029 Y120.820 E0.02496
G1 X141.602 Y121.492 E0.02496
G1 X140.876 Y122.006 E0.02788
G1 X140.006 Y122.189 E0.02788
G1 X109.960 Y122.188 E0.94207
G1 X109.180 Y122.029 E0.02496
G1 X108.508 Y121.602 E0.02496
G1 X107.994 Y120.876 E0.02788
G1 X107.811 Y120.006 E0.02788
G1 X107.812 Y89.960 E0.94207
G1 X107.971 Y89.180 E0.02496
G1 X108.398 Y88.508 E0.02496
G1 X109.055 Y88.038 E0.02533
G1 F8640
G1 X109.950 Y87.812 E-0.21319
G1 X112.318 Y87.812 E-0.54681
G1 E-0.04000 F2100.00000
G1 Z0.800 F10800.000
G1 X110.587 Y90.587
G1 Z0.200
G1 E0.80000 F2100.00000
G1 F1800
G1 X139.413 Y90.587 E0.90381
G1 X139.413 Y119.413 E0.90381
G1 X110.587 Y119.413 E0.90381
G1 X110.587 Y90.647 E0.90193
G1 X110.210 Y90.210 F10800.000
G1 F1800
G1 X139.790 Y90.210 E0.92746
G1 X139.790 Y119.790 E0.92746
G1 X110.210 Y119.790 E0.92746
G1 X110.210 Y90.270 E0.92558
G1 X110.596 Y90.314 F10800.000
G1 F8640
G1 X113.501 Y90.263 E-0.76000
G1 E-0.04000 F2100.00000
G1 Z0.800 F10800.000
G1 X110.700 Y118.535
G1 Z0.200
G1 E0.80000 F2100.00000
G1 F1800
G1 X111.296 Y119.130 E0.02651
G1 X111.831 Y119.130 E0.01685
G1 X110.870 Y118.169 E0.04278
G1 X110.870 Y117.634 E0.01685
G1 X112.366 Y119.130 E0.06660
G1 X112.902 Y119.130 E0.01685
G1 X110.870 Y117.098 E0.09043
G1 X110.870 Y116.563 E0.01685
G1 X113.437 Y119.130 E0.11425
G1 X113.972 Y119.130 E0.01685
G1 X110.870 Y116.028 E0.13807
G1 X110.870 Y115.493 E0.01685
G1 X114.507 Y119.130 E0.16190
G1 X115.043 Y119.130 E0.01685
G1 X110.870 Y114.957 E0.18572
G1 X110.870 Y114.422 E0.01685
G1 X115.578 Y119.130 E0.20955
G1 X116.113 Y119.130 E0.01685
G1 X110.870 Y113.887 E0.23337
G1 X110.870 Y113.352 E0.01685
G1 X116.648 Y119.130 E0.25720
G1 X117.184 Y119.130 E0.01685
G1 X110.870 Y112.816 E0.28102
G1 X110.870 Y112.281 E0.01685
G1 X117.719 Y119.130 E0.30484
G1 X118.254 Y119.130 E0.01685
G1 X110.870 Y111.746 E0.32867
G1 X110.870 Y111.210 E0.01685
G1 X118.790 Y119.130 E0.35249
G1 X119.325 Y119.130 E0.01685
G1 X110.870 Y110.675 E0.37632
G1 X110.870 Y110.140 E0.01685
G1 X119.860 Y119.130 E0.40014
G1 X120.395 Y119.130 E0.01685
G1 X110.870 Y109.605 E0.42397
G1 X110.870 Y109.069 E0.01685
G1 X120.931 Y119.130 E0.44779
G1 X121.466 Y119.130 E0.01685
G1 X110.870 Y108.534 E0.47162
G1 X110.870 Y107.999 E0.01685
G1 X122.001 Y119.130 E0.49544
G1 X122.537 Y119.130 E0.01685
G1 X110.870 Y107.463 E0.51926
G1 X110.870 Y106.928 E0.01685
G1 X123.072 Y119.130 E0.54309
G1 X123.607 Y119.130 E0.01685
G1 X110.870 Y106.393 E0.56691
G1 X110.870 Y105.858 E0.01685
G1 X124.142 Y119.130 E0.59074
G1 X124.678 Y119.130 E0.01685
G1 X110.870 Y105.322 E0.61456
G1 X110.870 Y104.787 E0.01685
G1 X125.213 Y119.130 E0.63839
G1 X125.748 Y119.130 E0.01685
G1 X110.870 Y104.252 E0.66221
G1 X110.870 Y103.717 E0.01685
G1 X126.283 Y119.130 E0.68603
G1 X126.819 Y119.130 E0.01685
G1 X110.870 Y103.181 E0.70986
G1 X110.870 Y102.646 E0.01685
G1 X127.354 Y119.130 E0.73368
G1 X127.889 Y119.130 E0.01685
G1 X110.870 Y102.111 E0.75751
G1 X110.870 Y101.575 E0.01685
G1 X128.425 Y119.130 E0.78133
G1 X128.960 Y119.130 E0.01685
G1 X110.870 Y101.040 E0.80516
G1 X110.870 Y100.505 E0.01685
G1 X129.495 Y119.130 E0.82898
G1 X130.030 Y119.130 E0.01685
G1 X110.870 Y99.970 E0.85281
G1 X110.870 Y99.434 E0.01685
G1 X130.566 Y119.130 E0.87663
G1 X131.101 Y119.130 E0.01685
G1 X110.870 Y98.899 E0.90045
G1 X110.870 Y98.364 E0.01685
G1 X131.636 Y119.130 E0.92428
G1 X132.171 Y119.130 E0.01685
G1 X110.870 Y97.829 E0.94810
G1 X110.870 Y97.293 E0.01685
G1 X132.707 Y119.130 E0.97193
G1 X133.242 Y119.130 E0.01685
G1 X110.870 Y96.758 E0.99575
G1 X110.870 Y96.223 E0.01685
G1 X133.777 Y119.130 E1.01958
G1 X134.313 Y119.130 E0.01685
G1 X110.870 Y95.687 E1.04340
G1 X110.870 Y95.152 E0.01685
G1 X134.848 Y119.130 E1.06722
G1 X135.383 Y119.130 E0.01685
G1 X110.870 Y94.617 E1.09105
G1 X110.870 Y94.082 E0.01685
G1 X135.918 Y119.130 E1.11487
G1 X136.454 Y119.130 E0.01685
G1 X110.870 Y93.546 E1.13870
G1 X110.870 Y93.011 E0.01685
G1 X136.989 Y119.130 E1.16252
G1 X137.524 Y119.130 E0.01685
G1 X110.870 Y92.476 E1.18635
G1 X110.870 Y91.940 E0.01685
G1 X138.060 Y119.130 E1.21017
G1 X138.595 Y119.130 E0.01685
G1 X110.870 Y91.405 E1.23399
G1 X110.870 Y90.870 E0.01685
G1 X139.130 Y119.130 E1.25782
G1 X139.130 Y118.595 E0.01684
G1 X111.405 Y90.870 E1.23400
G1 X111.940 Y90.870 E0.01685
G1 X139.130 Y118.060 E1.21017
G1 X139.130 Y117.524 E0.01685
G1 X112.476 Y90.870 E1.18635
G1 X113.011 Y90.870 E0.01685
G1 X139.130 Y116.989 E1.16253
G1 X139.130 Y116.454 E0.01685
G1 X113.546 Y90.870 E1.13870
G1 X114.081 Y90.870 E0.01685
G1 X139.130 Y115.919 E1.11488
G1 X139.130 Y115.383 E0.01685
G1 X114.617 Y90.870 E1.09105
G1 X115.152 Y90.870 E0.01685
G1 X139.130 Y114.848 E1.06723
G1 X139.130 Y114.313 E0.01685
G1 X115.687 Y90.870 E1.04340
G1 X116.223 Y90.870 E0.01685
G1 X139.130 Y113.777 E1.01958
G1 X139.130 Y113.242 E0.01685
G1 X116.758 Y90.870 E0.99576
G1 X117.293 Y90.870 E0.01685
G1 X139.130 Y112.707 E0.97193
G1 X139.130 Y112.172 E0.01685
G1 X117.828 Y90.870 E0.94811
G1 X118.364 Y90.870 E0.01685
G1 X139.130 Y111.636 E0.92428
G1 X139.130 Y111.101 E0.01685
G1 X118.899 Y90.870 E0.90046
G1 X119.434 Y90.870 E0.01685
G1 X139.130 Y110.566 E0.87663
G1 X139.130 Y110.030 E0.01685
G1 X119.970 Y90.870 E0.85281
G1 X120.505 Y90.870 E0.01685
G1 X139.130 Y109.495 E0.82898
G1 X139.130 Y108.960 E0.01685
G1 X121.040 Y90.870 E0.80516
G1 X121.575 Y90.870 E0.01685
G1 X139.130 Y108.425 E0.78134
G1 X139.130 Y107.889 E0.01685
G1 X122.111 Y90.870 E0.75751
G1 X122.646 Y90.870 E0.01685
G1 X139.130 Y107.354 E0.73369
G1 X139.130 Y106.819 E0.01685
G1 X123.181 Y90.870 E0.70986
G1 X123.716 Y90.870 E0.01685
G1 X139.130 Y106.284 E0.68604
G1 X139.130 Y105.748 E0.01685
G1 X124.252 Y90.870 E0.66221
G1 X124.787 Y90.870 E0.01685
G1 X139.130 Y105.213 E0.63839
G1 X139.130 Y104.678 E0.01685
G1 X125.322 Y90.870 E0.61457
G1 X125.858 Y90.870 E0.01685
G1 X139.130 Y104.142 E0.59074
G1 X139.130 Y103.607 E0.01685
G1 X126.393 Y90.870 E0.56692
G1 X126.928 Y90.870 E0.01685
G1 X139.130 Y103.072 E0.54309
G1 X139.130 Y102.537 E0.01685
G1 X127.463 Y90.870 E0.51927
G1 X127.999 Y90.870 E0.01685
G1 X139.130 Y102.001 E0.49544
G1 X139.130 Y101.466 E0.01685
G1 X128.534 Y90.870 E0.47162
G1 X129.069 Y90.870 E0.01685
G1 X139.130 Y100.931 E0.44779
G1 X139.130 Y100.395 E0.01685
G1 X129.605 Y90.870 E0.42397
G1 X130.140 Y90.870 E0.01685
G1 X139.130 Y99.860 E0.40015
G1 X139.130 Y99.325 E0.01685
G1 X130.675 Y90.870 E0.37632
G1 X131.210 Y90.870 E0.01685
G1 X139.130 Y98.790 E0.35250
G1 X139.130 Y98.254 E0.01685
G1 X131.746 Y90.870 E0.32867
G1 X132.281 Y90.870 E0.01685
G1 X139.130 Y97.719 E0.30485
G1 X139.130 Y97.184 E0.01685
G1 X132.816 Y90.870 E0.28102
G1 X133.351 Y90.870 E0.01685
G1 X139.130 Y96.649 E0.25720
G1 X139.130 Y96.113 E0.01685
G1 X133.887 Y90.870 E0.23338
G1 X134.422 Y90.870 E0.01685
G1 X139.130 Y95.578 E0.20955
G1 X139.130 Y95.043 E0.01685
G1 X134.957 Y90.870 E0.18573
G1 X135.493 Y90.870 E0.01685
G1 X139.130 Y94.507 E0.16190
G1 X139.130 Y93.972 E0.01685
G1 X136.028 Y90.870 E0.13808
G1 X136.563 Y90.870 E0.01685
G1 X139.130 Y93.437 E0.11425
G1 X139.130 Y92.902 E0.01685
G1 X137.098 Y90.870 E0.09043
G1 X137.634 Y90.870 E0.01685
G1 X139.130 Y92.366 E0.06661
G1 X139.130 Y91.831 E0.01685
G1 X138.169 Y90.870 E0.04278
G1 X138.704 Y90.870 E0.01685
G1 X139.300 Y91.465 E0.02651
M106 S255
;BEFORE_LAYER_CHANGE
;0.4


G1 F8640
G1 X138.704 Y90.870 E-0.19449
G1 X138.169 Y90.870 E-0.12360
G1 X139.130 Y91.831 E-0.31387
G1 X139.130 Y92.366 E-0.12360
G1 X139.117 Y92.353 E-0.00445
G1 E-0.04000 F2100.00000
G1 Z0.800 F10800.000
;AFTER_LAYER_CHANGE
;0.4
M104 S210 ; set temperature
G1 X141.991 Y89.091
G1 Z0.400
G1 E0.80000 F2100.00000
G1 F3000
G1 X142.186 Y89.895 E0.02597
G1 X142.188 Y120.040 E0.94517
G1 X142.029 Y120.820 E0.02496
G1 X141.602 Y121.492 E0.02496
G1 X140.876 Y122.006 E0.02788
G1 X140.006 Y122.189 E0.02788
G1 X109.960 Y122.188 E0.94207
G1 X109.180 Y122.029 E0.02496
G1 X108.508 Y121.602 E0.02496
G1 X107.994 Y120.876 E0.02788
G1 X107.811 Y120.006 E0.02788
G1 X107.812 Y89.960 E0.94207
G1 X107.971 Y89.180 E0.02496
G1 X108.398 Y88.508 E0.02496
G1 X109.104 Y88.003 E0.02721
G1 X109.950 Y87.812 E0.02721
G1 X140.004 Y87.811 E0.94230
G1 X140.817 Y87.970 E0.02597
G1 X141.510 Y88.416 E0.02586
G1 X141.956 Y89.042 E0.02409
G1 F8640
G1 X142.186 Y89.895 E-0.20418
G1 X142.186 Y92.303 E-0.55582
G1 E-0.04000 F2100.00000
G1 Z1.000 F10800.000
G1 X139.368 Y90.632
G1 Z0.400
G1 E0.80000 F2100.00000
M204 S800
G1 F2700
G1 X139.368 Y119.368 E0.97267
G1 X110.632 Y119.368 E0.97267
G1 X110.632 Y90.632 E0.97267
G1 X139.308 Y90.632 E0.97064
M204 S1000
G1 X139.775 Y90.225 F10800.000
M204 S800
G1 F2100
G1 X139.775 Y119.775 E1.00023
G1 X110.225 Y119.775 E1.00023
G1 X110.225 Y90.225 E1.00023
G1 X139.715 Y90.225 E0.99820
M204 S1000
G1 X139.671 Y90.611 F10800.000
G1 F8640
G1 X139.722 Y93.516 E-0.76000
G1 E-0.04000 F2100.00000
G1 Z1.000 F10800.000
G1 X111.578 Y90.754
G1 Z0.400
G1 E0.80000 F2100.00000
M204 S1500
G1 F10200
G1 X110.937 Y91.395 E0.03071
G1 X110.937 Y91.971 E0.01953
G1 X111.971 Y90.937 E0.04956
G1 X112.548 Y90.937 E0.01953
G1 X110.937 Y92.548 E0.07718
G1 X110.937 Y93.124 E0.01953
G1 X113.124 Y90.937 E0.10481
G1 X113.701 Y90.937 E0.01953
G1 X110.937 Y93.701 E0.13244
G1 X110.937 Y94.277 E0.01953
G1 X114.277 Y90.937 E0.16006
G1 X114.853 Y90.937 E0.01953
G1 X110.937 Y94.853 E0.18769
G1 X110.937 Y95.430 E0.01953
G1 X115.430 Y90.937 E0.21532
G1 X116.006 Y90.937 E0.01953
G1 X110.937 Y96.006 E0.24294
G1 X110.937 Y96.583 E0.01953
G1 X116.583 Y90.937 E0.27057
G1 X117.159 Y90.937 E0.01953
G1 X110.937 Y97.159 E0.29820
G1 X110.937 Y97.735 E0.01953
G1 X117.735 Y90.937 E0.32582
G1 X118.312 Y90.937 E0.01953
G1 X110.937 Y98.312 E0.35345
G1 X110.937 Y98.888 E0.01953
G1 X118.888 Y90.937 E0.38108
G1 X119.465 Y90.937 E0.01953
G1 X110.937 Y99.465 E0.40870
G1 X110.937 Y100.041 E0.01953
G1 X120.041 Y90.937 E0.43633
G1 X120.618 Y90.937 E0.01953
G1 X110.937 Y100.618 E0.46396
G1 X110.937 Y101.194 E0.01953
G1 X121.194 Y90.937 E0.49158
G1 X121.770 Y90.937 E0.01953
G1 X110.937 Y101.770 E0.51921
G1 X110.937 Y102.347 E0.01953
G1 X122.347 Y90.937 E0.54684
G1 X122.923 Y90.937 E0.01953
G1 X110.937 Y102.923 E0.57446
G1 X110.937 Y103.500 E0.01953
G1 X123.500 Y90.937 E0.60209
G1 X124.076 Y90.937 E0.01953
G1 X110.937 Y104.076 E0.62971
G1 X110.937 Y104.652 E0.01953
G1 X124.652 Y90.937 E0.65734
G1 X125.229 Y90.937 E0.01953
G1 X110.937 Y105.229 E0.68497
G1 X110.937 Y105.805 E0.01953
G1 X125.805 Y90.937 E0.71259
G1 X126.382 Y90.937 E0.01953
G1 X110.937 Y106.382 E0.74022
G1 X110.937 Y106.958 E0.01953
G1 X126.958 Y90.937 E0.76785
G1 X127.534 Y90.937 E0.01953
G1 X110.937 Y107.534 E0.79547
G1 X110.937 Y108.111 E0.01953
G1 X128.111 Y90.937 E0.82310
G1 X128.687 Y90.937 E0.01953
G1 X110.937 Y108.687 E0.85073
G1 X110.937 Y109.264 E0.01953
G1 X129.264 Y90.937 E0.87835
G1 X129.840 Y90.937 E0.01953
G1 X110.937 Y109.840 E0.90598
G1 X110.937 Y110.416 E0.01953
G1 X130.416 Y90.937 E0.93361
G1 X130.993 Y90.937 E0.01953
G1 X110.937 Y110.993 E0.96123
G1 X110.937 Y111.569 E0.01953
G1 X131.569 Y90.937 E0.98886
G1 X132.146 Y90.937 E0.01953
G1 X110.937 Y112.146 E1.01649
G1 X110.937 Y112.722 E0.01953
G1 X132.722 Y90.937 E1.04411
G1 X133.299 Y90.937 E0.01953
G1 X110.937 Y113.299 E1.07174
G1 X110.937 Y113.875 E0.01953
G1 X133.875 Y90.937 E1.09937
G1 X134.451 Y90.937 E0.01953
G1 X110.937 Y114.451 E1.12699
G1 X110.937 Y115.028 E0.01953
G1 X135.028 Y90.937 E1.15462
G1 X135.604 Y90.937 E0.01953
G1 X110.937 Y115.604 E1.18225
G1 X110.937 Y116.181 E0.01953
G1 X136.181 Y90.937 E1.20987
G1 X136.757 Y90.937 E0.01953
G1 X110.937 Y116.757 E1.23750
G1 X110.937 Y117.333 E0.01953
G1 X137.333 Y90.937 E1.26512
G1 X137.910 Y90.937 E0.01953
G1 X110.937 Y117.910 E1.29275
G1 X110.937 Y118.486 E0.01953
G1 X138.486 Y90.937 E1.32038
G1 X139.063 Y90.937 E0.01953
G1 X110.937 Y119.063 E1.34800
G1 X111.514 Y119.063 E0.01953
G1 X139.063 Y91.514 E1.32038
G1 X139.063 Y92.090 E0.01953
G1 X112.090 Y119.063 E1.29275
G1 X112.667 Y119.063 E0.01953
G1 X139.063 Y92.667 E1.26513
G1 X139.063 Y93.243 E0.01953
G1 X113.243 Y119.063 E1.23750
G1 X113.819 Y119.063 E0.01953
G1 X139.063 Y93.819 E1.20987
G1 X139.063 Y94.396 E0.01953
G1 X114.396 Y119.063 E1.18225
G1 X114.972 Y119.063 E0.01953
G1 X139.063 Y94.972 E1.15462
G1 X139.063 Y95.549 E0.01953
G1 X115.549 Y119.063 E1.12699
G1 X116.125 Y119.063 E0.01953
G1 X139.063 Y96.125 E1.09937
G1 X139.063 Y96.701 E0.01953
G1 X116.701 Y119.063 E1.07174
G1 X117.278 Y119.063 E0.01953
G1 X139.063 Y97.278 E1.04411
G1 X139.063 Y97.854 E0.01953
G1 X117.854 Y119.063 E1.01649
G1 X118.431 Y119.063 E0.01953
G1 X139.063 Y98.431 E0.98886
G1 X139.063 Y99.007 E0.01953
G1 X119.007 Y119.063 E0.96123
G1 X119.584 Y119.063 E0.01953
G1 X139.063 Y99.584 E0.93361
G1 X139.063 Y100.160 E0.01953
G1 X120.160 Y119.063 E0.90598
G1 X120.736 Y119.063 E0.01953
G1 X139.063 Y100.736 E0.87835
G1 X139.063 Y101.313 E0.01953
G1 X121.313 Y119.063 E0.85073
G1 X121.889 Y119.063 E0.01953
G1 X139.063 Y101.889 E0.82310
G1 X139.063 Y102.466 E0.01953
G1 X122.466 Y119.063 E0.79548
G1 X123.042 Y119.063 E0.01953
G1 X139.063 Y103.042 E0.76785
G1 X139.063 Y103.618 E0.01953
G1 X123.618 Y119.063 E0.74022
G1 X124.195 Y119.063 E0.01953
G1 X139.063 Y104.195 E0.71260
G1 X139.063 Y104.771 E0.01953
G1 X124.771 Y119.063 E0.68497
G1 X125.348 Y119.063 E0.01953
G1 X139.063 Y105.348 E0.65734
G1 X139.063 Y105.924 E0.01953
G1 X125.924 Y119.063 E0.62972
G1 X126.500 Y119.063 E0.01953
G1 X139.063 Y106.500 E0.60209
G1 X139.063 Y107.077 E0.01953
G1 X127.077 Y119.063 E0.57446
G1 X127.653 Y119.063 E0.01953
G1 X139.063 Y107.653 E0.54684
G1 X139.063 Y108.230 E0.01953
G1 X128.230 Y119.063 E0.51921
G1 X128.806 Y119.063 E0.01953
G1 X139.063 Y108.806 E0.49158
G1 X139.063 Y109.382 E0.01953
G1 X129.382 Y119.063 E0.46396
G1 X129.959 Y119.063 E0.01953
G1 X139.063 Y109.959 E0.43633
G1 X139.063 Y110.535 E0.01953
G1 X130.535 Y119.063 E0.40870
G1 X131.112 Y119.063 E0.01953
G1 X139.063 Y111.112 E0.38108
G1 X139.063 Y111.688 E0.01953
G1 X131.688 Y119.063 E0.35345
G1 X132.265 Y119.063 E0.01953
G1 X139.063 Y112.265 E0.32582
G1 X139.063 Y112.841 E0.01953
G1 X132.841 Y119.063 E0.29820
G1 X133.417 Y119.063 E0.01953
G1 X139.063 Y113.417 E0.27057
G1 X139.063 Y113.994 E0.01953
G1 X133.994 Y119.063 E0.24294
G1 X134.570 Y119.063 E0.01953
G1 X139.063 Y114.570 E0.21532
G1 X139.063 Y115.147 E0.01953
G1 X135.147 Y119.063 E0.18769
G1 X135.723 Y119.063 E0.01953
G1 X139.063 Y115.723 E0.16007
G1 X139.063 Y116.299 E0.01953
G1 X136.299 Y119.063 E0.13244
G1 X136.876 Y119.063 E0.01953
G1 X139.063 Y116.876 E0.10481
G1 X139.063 Y117.452 E0.01953
G1 X137.452 Y119.063 E0.07719
