; generated by Slic3r Prusa Edition 1.40.0-beta+linux64 on 2018-06-11 at 22:38:57

; 

; external perimeters extrusion width = 0.45mm
; perimeters extrusion width = 0.45mm
; infill extrusion width = 0.45mm
; solid infill extrusion width = 0.45mm
; top infill extrusion width = 0.40mm
; first layer extrusion width = 0.42mm

M107
M115 U3.1.1-RC5 ; tell printer latest fw version
M201 X1000 Y1000 Z200 E5000 ; sets maximum accelerations, mm/sec^2
M203 X200 Y200 Z12 E120 ; sets maximum feedrates, mm/sec
M204 S1250 T1250 ; sets acceleration (S) and retract acceleration (T)
M205 X10 Y10 Z0.4 E2.5 ; sets the jerk limits, mm/sec
M205 S0 T0 ; sets the minimum extruding and travel feed rate, mm/sec
M83  ; extruder relative mode
M104 S230 ; set extruder temp
M140 S80 ; set bed temp
M190 S80 ; wait for bed temp
M109 S230 ; wait for extruder temp
G28 W ; home all without mesh bed level
G80 ; mesh bed leveling
G1 Y-3.0 F1000.0 ; go outside print area
G92 E0.0
G1 X60.0 E9.0  F1000.0 ; intro line
G1 X100.0 E12.5  F1000.0 ; intro line
G92 E0.0
M221 S95
M900 K45; Filament gcode
G21 ; set units to millimeters
G90 ; use absolute coordinates
M83 ; use relative distances for extrusion
;BEFORE_LAYER_CHANGE
;0.2
M104 S230


G1 E-0.80000 F2100.00000
G1 Z0.600 F10800.000
;AFTER_LAYER_CHANGE
;0.2
G1 X107.304 Y88.627
G1 Z0.200
G1 E0.80000 F2100.00000
M204 S1000
G1 F1800
G1 X108.001 Y87.868 E0.03306
G1 X108.773 Y87.185 E0.03306
G1 X109.617 Y86.581 E0.03331
G1 X110.513 Y86.072 E0.03306
G1 X111.456 Y85.657 E0.03306
G1 X112.437 Y85.342 E0.03306
G1 X113.453 Y85.128 E0.03331
G1 X114.946 Y85.008 E0.04806
G1 X135.008 Y85.007 E0.64364
G1 X136.679 Y85.149 E0.05381
G1 X138.295 Y85.566 E0.05356
G1 X139.827 Y86.250 E0.05381
G1 X141.216 Y87.176 E0.05356
G1 X142.432 Y88.320 E0.05356
G1 X143.440 Y89.650 E0.05356
G1 X144.213 Y91.130 E0.05356
G1 X144.730 Y92.725 E0.05381
G1 X144.920 Y93.801 E0.03506
G1 X144.992 Y94.892 E0.03506
G1 X144.980 Y115.507 E0.66143
G1 X144.822 Y116.840 E0.04306
G1 X144.486 Y118.140 E0.04306
G1 X143.980 Y119.383 E0.04306
G1 X143.312 Y120.547 E0.04306
G1 X142.636 Y121.445 E0.03606
G1 X141.864 Y122.262 E0.03606
G1 X141.005 Y122.987 E0.03606
G1 X140.070 Y123.611 E0.03606
G1 X139.071 Y124.126 E0.03606
G1 X138.020 Y124.525 E0.03606
G1 X136.931 Y124.804 E0.03606
G1 X135.818 Y124.959 E0.03606
G1 X114.376 Y124.973 E0.68795
G1 X113.075 Y124.805 E0.04206
G1 X111.808 Y124.469 E0.04206
G1 X110.596 Y123.970 E0.04206
G1 X109.453 Y123.312 E0.04231
G1 X108.555 Y122.636 E0.03606
G1 X107.738 Y121.864 E0.03606
G1 X107.013 Y121.005 E0.03606
G1 X106.389 Y120.070 E0.03606
G1 X105.874 Y119.071 E0.03606
G1 X105.475 Y118.020 E0.03606
G1 X105.196 Y116.931 E0.03606
G1 X105.041 Y115.818 E0.03606
G1 X105.027 Y94.376 E0.68795
G1 X105.194 Y93.075 E0.04206
G1 X105.531 Y91.808 E0.04206
G1 X106.030 Y90.596 E0.04206
G1 X106.688 Y89.453 E0.04231
G1 X107.268 Y88.675 E0.03113
G1 X107.262 Y89.241 F10800.000
G1 F1800
G1 X110.020 Y86.723 E0.11983
G1 X111.911 Y85.867 E0.06661
G1 X113.969 Y85.411 E0.06763
G1 X135.882 Y85.404 E0.70304
G1 X137.770 Y85.756 E0.06162
G1 X139.545 Y86.472 E0.06140
G1 X141.917 Y88.298 E0.09604
G1 X143.622 Y90.668 E0.09366
G1 X144.524 Y93.513 E0.09576
G1 X144.616 Y115.727 E0.71273
G1 X144.043 Y118.367 E0.08665
G1 X142.738 Y120.759 E0.08741
G1 X139.980 Y123.277 E0.11983
G1 X138.082 Y124.135 E0.06684
G1 X135.785 Y124.616 E0.07529
G1 X114.267 Y124.616 E0.69037
G1 X111.633 Y124.043 E0.08648
G1 X109.241 Y122.738 E0.08740
G1 X106.723 Y119.980 E0.11983
G1 X105.865 Y118.082 E0.06684
G1 X105.384 Y115.785 E0.07529
G1 X105.384 Y94.267 E0.69037
G1 X105.957 Y91.633 E0.08648
G1 X107.233 Y89.294 E0.08548
G1 X107.563 Y89.476 F10800.000
G1 F1800
G1 X110.203 Y87.054 E0.11493
G1 X112.012 Y86.231 E0.06377
G1 X114.031 Y85.784 E0.06633
G1 X135.831 Y85.778 E0.69942
G1 X137.647 Y86.113 E0.05925
G1 X139.380 Y86.812 E0.05995
G1 X141.664 Y88.579 E0.09266
G1 X143.298 Y90.862 E0.09007
G1 X144.156 Y93.598 E0.09200
G1 X144.239 Y115.708 E0.70936
G1 X143.681 Y118.259 E0.08379
G1 X142.423 Y120.550 E0.08383
G1 X139.797 Y122.946 E0.11406
G1 X137.983 Y123.771 E0.06392
G1 X135.765 Y124.238 E0.07274
G1 X114.287 Y124.238 E0.68907
G1 X111.740 Y123.681 E0.08365
G1 X109.450 Y122.423 E0.08382
G1 X107.054 Y119.797 E0.11406
G1 X106.229 Y117.983 E0.06392
G1 X105.762 Y115.765 E0.07274
G1 X105.762 Y94.287 E0.68907
G1 X106.319 Y91.740 E0.08365
G1 X107.534 Y89.528 E0.08098
G1 X107.864 Y89.710 F10800.000
G1 F1800
G1 X107.892 Y89.660 E0.00185
G1 X110.387 Y87.384 E0.10834
G1 X112.113 Y86.594 E0.06092
G1 X114.092 Y86.156 E0.06502
G1 X135.779 Y86.151 E0.69580
G1 X137.559 Y86.481 E0.05808
G1 X139.214 Y87.151 E0.05727
G1 X141.411 Y88.859 E0.08929
G1 X142.973 Y91.056 E0.08647
G1 X143.788 Y93.683 E0.08824
G1 X143.862 Y115.688 E0.70602
G1 X143.318 Y118.151 E0.08092
G1 X142.108 Y120.340 E0.08024
G1 X139.613 Y122.616 E0.10833
G1 X137.884 Y123.406 E0.06100
G1 X135.745 Y123.861 E0.07017
G1 X114.308 Y123.861 E0.68777
G1 X111.849 Y123.318 E0.08080
G1 X109.660 Y122.108 E0.08024
G1 X107.384 Y119.613 E0.10833
G1 X106.594 Y117.884 E0.06100
G1 X106.139 Y115.745 E0.07017
G1 X106.139 Y94.308 E0.68777
G1 X106.682 Y91.849 E0.08080
G1 X107.835 Y89.763 E0.07647
G1 X108.165 Y89.945 F10800.000
G1 F1800
G1 X108.207 Y89.870 E0.00278
G1 X110.571 Y87.715 E0.10262
G1 X112.215 Y86.958 E0.05806
G1 X114.154 Y86.529 E0.06371
G1 X135.728 Y86.525 E0.69220
G1 X137.436 Y86.837 E0.05568
G1 X139.047 Y87.491 E0.05580
G1 X141.156 Y89.139 E0.08588
G1 X142.647 Y91.248 E0.08287
G1 X143.419 Y93.766 E0.08449
G1 X143.484 Y115.669 E0.70271
G1 X142.975 Y117.993 E0.07633
G1 X141.793 Y120.130 E0.07837
G1 X139.429 Y122.285 E0.10262
G1 X137.784 Y123.042 E0.05809
G1 X135.725 Y123.484 E0.06759
G1 X114.328 Y123.484 E0.68648
G1 X112.007 Y122.975 E0.07624
G1 X109.870 Y121.793 E0.07837
G1 X107.715 Y119.429 E0.10262
G1 X106.958 Y117.784 E0.05809
G1 X106.516 Y115.725 E0.06759
G1 X106.516 Y94.328 E0.68648
G1 X107.025 Y92.007 E0.07624
G1 X108.136 Y89.998 E0.07366
G1 X108.465 Y90.181 F10800.000
G1 F1800
G1 X108.521 Y90.080 E0.00372
G1 X110.756 Y88.045 E0.09697
G1 X112.316 Y87.322 E0.05518
G1 X114.215 Y86.902 E0.06239
G1 X135.677 Y86.899 E0.68859
G1 X137.349 Y87.205 E0.05450
G1 X138.880 Y87.830 E0.05307
G1 X140.901 Y89.418 E0.08247
G1 X142.321 Y91.440 E0.07926
G1 X143.050 Y93.849 E0.08075
G1 X143.107 Y115.649 E0.69942
G1 X142.613 Y117.884 E0.07345
G1 X141.479 Y119.920 E0.07477
G1 X139.245 Y121.955 E0.09697
G1 X137.684 Y122.678 E0.05518
G1 X135.704 Y123.107 E0.06498
G1 X114.349 Y123.107 E0.68516
G1 X112.116 Y122.613 E0.07338
G1 X110.080 Y121.479 E0.07477
G1 X108.045 Y119.245 E0.09697
G1 X107.322 Y117.684 E0.05518
G1 X106.893 Y115.704 E0.06498
G1 X106.893 Y94.349 E0.68516
G1 X107.387 Y92.116 E0.07338
G1 X108.436 Y90.234 E0.06913
G1 X108.835 Y90.291 F10800.000
G1 F1800
G1 X110.941 Y88.374 E0.09137
G1 X112.418 Y87.686 E0.05229
G1 X114.276 Y87.274 E0.06106
G1 X135.627 Y87.274 E0.68501
G1 X137.225 Y87.561 E0.05207
G1 X138.713 Y88.169 E0.05157
G1 X140.645 Y89.696 E0.07904
G1 X141.994 Y91.630 E0.07565
G1 X142.681 Y93.930 E0.07701
G1 X142.730 Y115.629 E0.69616
G1 X142.251 Y117.775 E0.07054
G1 X141.165 Y119.709 E0.07117
G1 X139.059 Y121.626 E0.09137
G1 X137.582 Y122.314 E0.05228
G1 X135.684 Y122.730 E0.06236
G1 X114.370 Y122.730 E0.68383
G1 X112.225 Y122.251 E0.07049
G1 X110.291 Y121.165 E0.07117
G1 X108.374 Y119.059 E0.09137
G1 X107.686 Y117.582 E0.05228
G1 X107.270 Y115.684 E0.06236
G1 X107.270 Y94.370 E0.68383
G1 X107.749 Y92.225 E0.07049
G1 X108.806 Y90.344 E0.06924
G1 X109.133 Y90.529 F10800.000
G1 F1800
G1 X111.127 Y88.703 E0.08673
G1 X112.520 Y88.049 E0.04939
G1 X114.338 Y87.647 E0.05973
G1 X135.611 Y87.651 E0.68251
G1 X137.101 Y87.918 E0.04857
G1 X138.545 Y88.508 E0.05006
G1 X140.389 Y89.974 E0.07557
G1 X141.667 Y91.820 E0.07203
G1 X142.312 Y94.011 E0.07328
G1 X142.353 Y115.608 E0.69292
G1 X141.890 Y117.664 E0.06762
G1 X140.852 Y119.496 E0.06756
G1 X138.873 Y121.297 E0.08583
G1 X137.480 Y121.951 E0.04938
G1 X135.663 Y122.353 E0.05971
G1 X114.391 Y122.353 E0.68248
G1 X112.336 Y121.890 E0.06759
G1 X110.504 Y120.852 E0.06756
G1 X108.703 Y118.873 E0.08583
G1 X108.049 Y117.480 E0.04938
G1 X107.647 Y115.663 E0.05971
G1 X107.647 Y94.391 E0.68248
G1 X108.110 Y92.336 E0.06759
G1 X109.104 Y90.582 E0.06469
G1 X109.431 Y90.768 F10800.000
G1 F1800
G1 X109.460 Y90.717 E0.00191
G1 X111.314 Y89.032 E0.08035
G1 X112.623 Y88.412 E0.04649
G1 X114.359 Y88.024 E0.05705
G1 X135.593 Y88.028 E0.68128
G1 X137.013 Y88.285 E0.04630
G1 X138.377 Y88.846 E0.04729
G1 X140.131 Y90.250 E0.07210
G1 X141.339 Y92.008 E0.06841
G1 X141.942 Y94.090 E0.06955
G1 X141.976 Y115.587 E0.68971
G1 X141.528 Y117.553 E0.06468
G1 X140.540 Y119.283 E0.06395
G1 X138.687 Y120.968 E0.08035
G1 X137.377 Y121.587 E0.04649
G1 X135.642 Y121.976 E0.05703
G1 X114.412 Y121.976 E0.68112
G1 X112.447 Y121.528 E0.06466
G1 X110.717 Y120.540 E0.06395
G1 X109.032 Y118.687 E0.08035
G1 X108.413 Y117.377 E0.04649
G1 X108.024 Y115.642 E0.05703
G1 X108.024 Y94.412 E0.68112
G1 X108.472 Y92.447 E0.06466
G1 X109.401 Y90.821 E0.06011
G1 X109.729 Y91.008 F10800.000
G1 F1800
G1 X109.773 Y90.930 E0.00288
G1 X111.501 Y89.360 E0.07488
G1 X112.728 Y88.775 E0.04361
G1 X114.380 Y88.401 E0.05435
G1 X135.576 Y88.405 E0.68004
G1 X136.925 Y88.653 E0.04401
G1 X138.207 Y89.184 E0.04451
G1 X139.872 Y90.526 E0.06863
G1 X141.010 Y92.194 E0.06478
G1 X141.572 Y94.168 E0.06583
G1 X141.599 Y115.567 E0.68655
G1 X141.187 Y117.390 E0.05998
G1 X140.227 Y119.070 E0.06209
G1 X138.499 Y120.640 E0.07488
G1 X137.272 Y121.225 E0.04360
G1 X135.621 Y121.599 E0.05434
G1 X114.433 Y121.599 E0.67977
G1 X112.610 Y121.187 E0.05997
G1 X110.930 Y120.227 E0.06209
G1 X109.360 Y118.499 E0.07488
G1 X108.775 Y117.272 E0.04360
G1 X108.401 Y115.621 E0.05434
G1 X108.401 Y94.433 E0.67977
G1 X108.813 Y92.610 E0.05997
G1 X109.699 Y91.060 E0.05728
G1 X110.085 Y91.144 F10800.000
G1 F1800
G1 X111.689 Y89.688 E0.06950
G1 X112.833 Y89.138 E0.04073
G1 X114.401 Y88.778 E0.05163
G1 X135.558 Y88.782 E0.67879
G1 X136.836 Y89.019 E0.04169
G1 X138.036 Y89.521 E0.04172
G1 X139.612 Y90.801 E0.06515
G1 X140.680 Y92.380 E0.06115
G1 X141.202 Y94.244 E0.06212
G1 X141.222 Y115.545 E0.68342
G1 X140.826 Y117.278 E0.05702
G1 X139.915 Y118.856 E0.05846
G1 X138.311 Y120.312 E0.06950
G1 X137.167 Y120.862 E0.04072
G1 X135.599 Y121.222 E0.05161
G1 X114.455 Y121.222 E0.67839
G1 X112.722 Y120.826 E0.05702
G1 X111.144 Y119.915 E0.05846
G1 X109.688 Y118.311 E0.06950
G1 X109.138 Y117.167 E0.04072
G1 X108.778 Y115.599 E0.05161
G1 X108.778 Y94.455 E0.67839
G1 X109.174 Y92.722 E0.05702
G1 X110.055 Y91.196 E0.05654
G1 X110.380 Y91.385 F10800.000
G1 F1800
G1 X111.878 Y90.015 E0.06512
G1 X112.940 Y89.500 E0.03786
G1 X114.423 Y89.155 E0.04887
G1 X135.541 Y89.159 E0.67752
G1 X136.746 Y89.386 E0.03935
G1 X137.864 Y89.857 E0.03893
G1 X139.352 Y91.074 E0.06167
G1 X140.349 Y92.563 E0.05751
G1 X140.832 Y94.319 E0.05842
G1 X140.845 Y115.524 E0.68032
G1 X140.465 Y117.165 E0.05404
G1 X139.604 Y118.641 E0.05483
G1 X138.122 Y119.984 E0.06419
G1 X137.060 Y120.500 E0.03785
G1 X135.577 Y120.845 E0.04886
G1 X114.476 Y120.845 E0.67700
G1 X112.835 Y120.465 E0.05404
G1 X111.359 Y119.604 E0.05483
G1 X110.016 Y118.122 E0.06419
G1 X109.500 Y117.060 E0.03785
G1 X109.155 Y115.577 E0.04886
G1 X109.155 Y94.476 E0.67700
G1 X109.535 Y92.835 E0.05404
G1 X110.350 Y91.437 E0.05192
G1 X110.674 Y91.628 F10800.000
G1 F1800
G1 X110.706 Y91.575 E0.00197
G1 X112.068 Y90.342 E0.05896
G1 X113.047 Y89.862 E0.03500
G1 X114.445 Y89.532 E0.04608
G1 X135.523 Y89.536 E0.67625
G1 X136.618 Y89.741 E0.03574
G1 X137.692 Y90.194 E0.03738
G1 X139.090 Y91.347 E0.05813
G1 X140.018 Y92.746 E0.05386
G1 X140.461 Y94.393 E0.05472
G1 X140.468 Y115.502 E0.67725
G1 X140.105 Y117.050 E0.05102
G1 X139.294 Y118.425 E0.05119
G1 X137.932 Y119.658 E0.05896
G1 X136.953 Y120.138 E0.03499
G1 X135.555 Y120.468 E0.04607
G1 X114.498 Y120.468 E0.67558
G1 X112.950 Y120.105 E0.05102
G1 X111.575 Y119.294 E0.05119
G1 X110.342 Y117.932 E0.05896
G1 X109.862 Y116.953 E0.03499
G1 X109.532 Y115.555 E0.04607
G1 X109.532 Y94.498 E0.67558
G1 X109.895 Y92.950 E0.05102
G1 X110.644 Y91.680 E0.04729
G1 F8640
G1 X110.706 Y91.575 E-0.02805
G1 X112.068 Y90.342 E-0.42432
G1 X113.047 Y89.862 E-0.25188
G1 X113.282 Y89.807 E-0.05576
G1 E-0.04000 F2100.00000
G1 Z0.800 F10800.000
G1 X110.255 Y93.066
G1 Z0.200
G1 E0.80000 F2100.00000
G1 F1800
G1 X111.015 Y91.793 E0.04755
G1 X112.259 Y90.668 E0.05381
G1 X113.157 Y90.224 E0.03215
G1 X114.468 Y89.909 E0.04326
G1 X135.505 Y89.913 E0.67494
G1 X136.527 Y90.108 E0.03338
G1 X137.518 Y90.530 E0.03456
G1 X138.826 Y91.618 E0.05460
G1 X139.686 Y92.926 E0.05021
G1 X140.091 Y94.465 E0.05104
G1 X140.091 Y115.479 E0.67423
G1 X139.745 Y116.934 E0.04797
G1 X138.985 Y118.207 E0.04755
G1 X137.741 Y119.332 E0.05381
G1 X136.843 Y119.776 E0.03214
G1 X135.533 Y120.091 E0.04325
G1 X114.521 Y120.091 E0.67414
G1 X113.066 Y119.745 E0.04797
G1 X111.793 Y118.985 E0.04755
G1 X110.668 Y117.741 E0.05381
G1 X110.224 Y116.843 E0.03214
G1 X109.909 Y115.533 E0.04325
G1 X109.909 Y94.521 E0.67414
G1 X110.241 Y93.124 E0.04605
G1 X110.608 Y93.213 F10800.000
G1 F1800
G1 X111.322 Y92.012 E0.04482
G1 X112.451 Y90.994 E0.04877
G1 X113.267 Y90.585 E0.02931
G1 X114.491 Y90.286 E0.04040
G1 X135.487 Y90.290 E0.67362
G1 X136.435 Y90.474 E0.03099
G1 X137.343 Y90.865 E0.03173
G1 X138.562 Y91.888 E0.05106
G1 X139.353 Y93.106 E0.04657
G1 X139.713 Y94.489 E0.04585
G1 X139.713 Y115.457 E0.67273
G1 X139.385 Y116.817 E0.04488
G1 X138.678 Y117.988 E0.04390
G1 X137.549 Y119.006 E0.04876
G1 X136.733 Y119.415 E0.02930
G1 X135.510 Y119.713 E0.04039
G1 X114.543 Y119.713 E0.67267
G1 X113.183 Y119.385 E0.04488
G1 X112.012 Y118.678 E0.04390
G1 X110.994 Y117.549 E0.04876
G1 X110.585 Y116.733 E0.02930
G1 X110.287 Y115.510 E0.04039
G1 X110.287 Y94.543 E0.67267
G1 X110.593 Y93.271 E0.04199
G1 X110.959 Y93.361 F10800.000
G1 F1800
G1 X110.974 Y93.302 E0.00192
G1 X111.629 Y92.233 E0.04024
G1 X112.644 Y91.319 E0.04382
G1 X113.380 Y90.945 E0.02648
G1 X114.514 Y90.664 E0.03750
G1 X135.468 Y90.667 E0.67226
G1 X136.341 Y90.840 E0.02856
G1 X137.166 Y91.199 E0.02889
G1 X138.297 Y92.158 E0.04756
G1 X138.996 Y93.232 E0.04112
G1 X139.336 Y94.513 E0.04254
G1 X139.336 Y115.434 E0.67119
G1 X139.026 Y116.698 E0.04175
G1 X138.371 Y117.767 E0.04024
G1 X137.356 Y118.681 E0.04382
G1 X136.620 Y119.055 E0.02648
G1 X135.486 Y119.336 E0.03749
G1 X114.566 Y119.336 E0.67118
G1 X113.302 Y119.026 E0.04175
G1 X112.233 Y118.371 E0.04024
G1 X111.319 Y117.356 E0.04382
G1 X110.945 Y116.620 E0.02648
G1 X110.664 Y115.486 E0.03749
G1 X110.664 Y94.566 E0.67118
G1 X110.945 Y93.419 E0.03790
G1 X111.303 Y93.506 F10800.000
G1 F1800
G1 X111.904 Y92.493 E0.03778
G1 X112.839 Y91.642 E0.04057
G1 X113.494 Y91.305 E0.02363
G1 X114.538 Y91.041 E0.03455
G1 X135.449 Y91.044 E0.67088
G1 X136.246 Y91.205 E0.02609
G1 X136.988 Y91.533 E0.02604
G1 X138.030 Y92.426 E0.04402
G1 X138.663 Y93.410 E0.03755
G1 X138.959 Y94.538 E0.03740
G1 X138.959 Y115.412 E0.66971
G1 X138.689 Y116.528 E0.03686
G1 X138.096 Y117.507 E0.03672
G1 X137.161 Y118.358 E0.04057
G1 X136.506 Y118.695 E0.02363
G1 X135.462 Y118.959 E0.03454
G1 X114.588 Y118.959 E0.66970
G1 X113.472 Y118.689 E0.03686
G1 X112.493 Y118.096 E0.03672
G1 X111.642 Y117.161 E0.04057
G1 X111.305 Y116.506 E0.02363
G1 X111.041 Y115.462 E0.03454
G1 X111.041 Y94.588 E0.66970
G1 X111.289 Y93.564 E0.03382
G1 X111.648 Y93.650 F10800.000
G1 F1800
G1 X112.180 Y92.751 E0.03351
G1 X113.036 Y91.964 E0.03732
G1 X113.611 Y91.665 E0.02078
G1 X114.562 Y91.418 E0.03155
G1 X135.429 Y91.421 E0.66947
G1 X136.148 Y91.570 E0.02357
G1 X136.808 Y91.865 E0.02318
G1 X137.762 Y92.692 E0.04052
G1 X138.306 Y93.537 E0.03223
G1 X138.582 Y94.563 E0.03409
G1 X138.582 Y115.390 E0.66819
G1 X138.350 Y116.360 E0.03202
G1 X137.820 Y117.249 E0.03319
G1 X136.964 Y118.036 E0.03732
G1 X136.389 Y118.335 E0.02078
G1 X135.438 Y118.582 E0.03154
G1 X114.610 Y118.582 E0.66822
G1 X113.640 Y118.350 E0.03202
G1 X112.751 Y117.820 E0.03319
G1 X111.964 Y116.964 E0.03732
G1 X111.665 Y116.389 E0.02078
G1 X111.418 Y115.438 E0.03154
G1 X111.418 Y94.610 E0.66822
G1 X111.634 Y93.708 E0.02976
